X: 236
T: The Walk Around
B: australian dance tunes
M:6/8
L:1/8
Q: 3/8=100
K:G
V:1 
cd|:e2A AGA|ede gfe|d2 G GFG|BGB dBd|!
e2 A AGA|ede gfe|dge dcB|1 A3 Acd:|2 A3 A3||!
|:aba age|aga b2 a|gag ged|ede g2 e|!
aba age|aga b2 a|gfg edB|A3 A3:|
% abcbook-tune_id 62a07850e4a80b1e6d2a5de4


% abcbook-boost 0
% abcbook-tablature 
% abcbook-transpose 
% abcbook-lastupdated 1654685619340
% abcbook-soundfonts 
% abcbook-repeats 1


